app/src/main/assets/symbols/shopping/variety_store.svg

<?xml version="1.0" encoding="UTF-8"?>
<svg version="1.1" viewBox="0 0 14 14" xmlns="http://www.w3.org/2000/svg" xmlns:cc="http://creativecommons.org/ns#" xmlns:dc="http://purl.org/dc/elements/1.1/" xmlns:rdf="http://www.w3.org/1999/02/22-rdf-syntax-ns#">
<metadata>
<rdf:RDF>
<cc:Work rdf:about="">
<dc:format>image/svg+xml</dc:format>
<dc:type rdf:resource="http://purl.org/dc/dcmitype/StillImage"/>
<dc:title/>
</cc:Work>
</rdf:RDF>
</metadata>
<g fill="#ac39ac">
<path d="m5 0c-1 0-1 0-1 1l0.0097656 3h-3.0098v9c0 1 0 1 1 1h10c1 0 1 0 1-1v-9h-2.9609l-0.039062-3c0-1 0-1-1-1zm4 1v3h-4v-3zm-4 4h3v7h-3v-1h2v-2h-2zm4 0h3v7h-3v-1h2v-2h-2zm-3 1v2h1v-2zm4 0v2h1v-2zm-8 5h2v2.4893h-1v-1.4893h-1z"/>
</g>
</svg>

<?xml version="1.0" encoding="UTF-8" standalone="no"?>
<svg
   xmlns:dc="http://purl.org/dc/elements/1.1/"
   xmlns:cc="http://creativecommons.org/ns#"
   xmlns:rdf="http://www.w3.org/1999/02/22-rdf-syntax-ns#"
   xmlns:svg="http://www.w3.org/2000/svg"
   xmlns="http://www.w3.org/2000/svg"
   id="svg2"
   viewBox="0 0 14 14"
  width="14"
  height="14"
   version="1.1">
  <defs
     id="defs3053" />
  <metadata
     id="metadata8">
    <rdf:RDF>
      <cc:Work
         rdf:about="">
        <dc:format>image/svg+xml</dc:format>
        <dc:type
           rdf:resource="http://purl.org/dc/dcmitype/StillImage" />
        <dc:title></dc:title>
      </cc:Work>
    </rdf:RDF>
  </metadata>
  <g
     style="font-size:7.5px;font-style:normal;font-weight:normal;line-height:125%;letter-spacing:0px;word-spacing:0px;fill:#ac39ac;fill-opacity:1;stroke:none;display:inline;font-family:Bitstream Vera Sans"
     id="text4134">
    <path
       id="variety_store"
       d="M 5,0 C 4,0 4,0 4,1 L 4.0097656,4 1,4 1,13 c 0,1 0,1 1,1 l 10,0 c 1,0 1,0 1,-1 L 13,4 10.039062,4 10,1 C 10,0 10,0 9,0 Z M 9,1 9,4 5,4 5,1 Z M 5,5 8,5 8,12 5,12 5,11 7,11 7,9 5,9 Z m 4,0 3,0 0,7 -3,0 0,-1 2,0 0,-2 -2,0 z M 6,6 6,8 7,8 7,6 Z m 4,0 0,2 1,0 0,-2 z m -8,5 2,0 0,2.48929 -1,0 L 3,12 2,12 Z"
       style="font-weight:bold;font-size:8.75px" />
  </g>
</svg>
